X:619
T: HIER STEH ICH AM BERGE
N: E0571A
O: Europa, Mitteleuropa, Deutschland, Westfalen, Herfurt; Hessen
R: Liebes - Lied
M: 3/4
L: 1/16
K: D
D2E2 | F4F6F2 | F2A2A4
F2A2 | A4G4E2G2 | F4z4
D2E2 | F4F6F2 | F2A2A4
F2A2 | A4G4E2G2 | F4z4
F4 | E2^G2B2d2d4 | c2B2A4
E4 | E2^G2B2d2d4 | c6B2
A4 | d4c4B3B | B4A4
F2A2 | A4G4E2G2 | F2A2d4
A4 | d4c4B3B | B4A4
F2A2 | A4G4E2G2 | F8

@@@ Tune index: 4269
